src/categories-icons-sprite/categories/svg-cat-home-pillow.svg

<svg width="32" height="26" viewBox="0 0 32 26" fill="none" xmlns="http://www.w3.org/2000/svg">
<path class="p-545AC3" d="M30.8193 15.8143C31.5312 11.7976 31.5356 8.01951 30.8324 4.00721L31.1464 3.69322C31.555 3.28467 31.78 2.7413 31.78 2.16351C31.78 1.58547 30.696 1.90128 30.2875 1.49249C29.8789 1.08394 30.1945 0 29.6167 0C29.0389 0 28.4956 0.225007 28.087 0.63356L27.5451 1.17547C21.4178 0.0868023 15.2134 0.0863174 9.08579 1.17353L8.54582 0.63356C8.13727 0.225007 7.59391 0 7.01612 0C6.43808 0 6.75389 1.08394 6.3451 1.49249C5.96012 1.87747 4.89191 1.51371 4.85833 2.0185C4.81833 2.61976 5.02761 3.23466 5.48617 3.69322L5.78973 3.99654C5.08416 8.01636 5.08828 11.801 5.80282 15.8249L5.48617 16.1413C4.64263 16.9849 4.64263 18.3575 5.48617 19.201C5.89496 19.6096 6.43808 19.8346 7.01612 19.8346C7.59391 19.8346 8.13727 19.6096 8.54582 19.201L9.16071 18.5861C15.2383 19.6554 21.3928 19.6549 27.4702 18.5842L28.0868 19.201C28.4956 19.6096 29.0387 19.8346 29.6167 19.8346C30.1945 19.8346 29.8789 18.7506 30.2875 18.3421C30.696 17.9335 31.78 18.2491 31.78 17.6713C31.78 17.0933 31.555 16.5501 31.1464 16.1413L30.8193 15.8143Z" fill="#65B3E7"/>
<path class="p-404AA2" d="M30.819 15.8143C31.5308 11.7976 31.5352 8.01954 30.8321 4.00722L31.146 3.69323C31.5546 3.28468 31.7796 2.74131 31.7796 2.16352C31.7796 1.58548 30.6957 1.90129 30.2871 1.49249C29.8786 1.08394 30.1941 0 29.6163 0C29.0385 0 28.4952 0.225008 28.0866 0.633561L27.5447 1.17547C24.6259 0.656838 21.6894 0.385762 18.752 0.361031V19.3851C21.6642 19.3606 24.5757 19.0939 27.4698 18.5842L28.0866 19.2008C28.4952 19.6096 29.0383 19.8346 29.6163 19.8346C30.1941 19.8346 29.8786 18.7507 30.2871 18.3419C30.6957 17.9333 31.7796 18.2491 31.7796 17.6713C31.7796 17.0933 31.5546 16.5502 31.146 16.1414L30.819 15.8143Z" fill="#4D98CB"/>
<path class="p-85D3FD" d="M25.9658 21.9795C26.6777 17.9629 26.6821 14.1848 25.9789 10.1725L26.2929 9.8585C26.7015 9.44995 26.9265 8.90659 26.9265 8.32879C26.9265 7.75076 25.8425 8.06657 25.434 7.65777C25.0254 7.24922 25.341 6.16528 24.7632 6.16528C24.1852 6.16528 23.642 6.39029 23.2332 6.79884L22.6916 7.34075C16.5643 6.25209 10.3598 6.25136 4.23228 7.33881L3.69231 6.79884C3.28376 6.39029 2.74039 6.16528 2.1626 6.16528C1.58457 6.16528 1.90038 7.24922 1.49158 7.65777C1.11272 8.03664 0.0450862 7.66329 0.00654656 8.15974C-0.0407218 8.76862 0.167979 9.39383 0.63265 9.8585L0.936216 10.1618C0.230644 14.1816 0.234766 17.9663 0.949309 21.9902L0.63265 22.3066C0.321314 22.618 0.124888 23.0014 0.0433711 23.4036C-0.095974 24.0913 0.959382 23.9752 1.49158 24.5074C1.90038 24.9159 1.58457 25.9998 2.1626 25.9998C2.74039 25.9998 3.28376 25.7748 3.69231 25.3663L4.3072 24.7514C10.3846 25.8207 16.5393 25.8202 22.6164 24.7495L23.2332 25.3663C23.6418 25.7748 24.1852 25.9998 24.7632 25.9998C25.341 25.9998 25.0252 24.9159 25.434 24.5074C25.8425 24.0988 26.9265 24.4144 26.9265 23.8366C26.9265 23.2585 26.7015 22.7154 26.2929 22.3069L25.9658 21.9795Z" fill="#B9DFFC"/>
<path class="p-22B8F9" d="M25.9665 21.9796C26.6784 17.9629 26.6828 14.1848 25.9796 10.1725L26.2936 9.85851C26.7022 9.44996 26.9272 8.90659 26.9272 8.3288C26.9272 7.75076 25.8432 8.06657 25.4347 7.65777C25.0261 7.24922 25.3417 6.16528 24.7639 6.16528C24.1859 6.16528 23.6427 6.39029 23.2339 6.79884L22.6923 7.34075C19.685 6.80636 16.659 6.5348 13.6328 6.52462V25.5518C16.634 25.5419 19.635 25.2749 22.6174 24.7495L23.2339 25.3663C23.6427 25.7749 24.1859 25.9999 24.7639 25.9999C25.3417 25.9999 25.0261 24.916 25.4347 24.5074C25.8432 24.0986 26.9272 24.4144 26.9272 23.8364C26.9272 23.2586 26.7022 22.7152 26.2936 22.3067L25.9665 21.9796Z" fill="#A1D1FD"/>
</svg>

<svg width="32" height="26" fill="none" xmlns="http://www.w3.org/2000/svg"><path class="p-545AC3" d="M30.82 15.814c.711-4.016.716-7.794.012-11.807l.314-.314a2.15 2.15 0 00.634-1.53c0-.578-1.084-.262-1.492-.67-.41-.41-.093-1.493-.671-1.493a2.15 2.15 0 00-1.53.634l-.542.541a52.608 52.608 0 00-18.46-.001l-.54-.54A2.15 2.15 0 007.017 0c-.578 0-.262 1.084-.67 1.492-.386.385-1.454.022-1.488.526a2.16 2.16 0 00.628 1.675l.304.304c-.706 4.02-.702 7.804.013 11.828l-.317.316a2.166 2.166 0 000 3.06 2.15 2.15 0 001.53.634 2.15 2.15 0 001.53-.634l.615-.615a52.619 52.619 0 0018.31-.002l.616.617a2.15 2.15 0 001.53.634c.578 0 .262-1.084.67-1.493.409-.409 1.493-.093 1.493-.67a2.15 2.15 0 00-.634-1.53l-.327-.328z" fill="#65B3E7"/><path class="p-404AA2" d="M30.819 15.814c.712-4.016.716-7.794.013-11.807l.314-.314a2.15 2.15 0 00.634-1.53c0-.578-1.084-.262-1.493-.67-.408-.41-.093-1.493-.67-1.493a2.15 2.15 0 00-1.53.634l-.542.541a52.759 52.759 0 00-8.793-.814v19.024a52.785 52.785 0 008.718-.8l.617.616c.408.409.951.634 1.53.634.577 0 .262-1.084.67-1.493.409-.409 1.493-.093 1.493-.67a2.15 2.15 0 00-.634-1.53l-.327-.328z" fill="#4D98CB"/><path class="p-85D3FD" d="M25.966 21.98c.712-4.017.716-7.795.013-11.808l.314-.314a2.15 2.15 0 00.634-1.53c0-.577-1.084-.261-1.493-.67-.409-.409-.093-1.493-.67-1.493a2.15 2.15 0 00-1.53.634l-.542.542a52.603 52.603 0 00-18.46-.002l-.54-.54a2.15 2.15 0 00-1.53-.634c-.577 0-.262 1.084-.67 1.493-.38.379-1.447.005-1.485.502a2.16 2.16 0 00.626 1.698l.303.304C.231 14.182.235 17.966.95 21.99l-.316.317a2.151 2.151 0 00-.59 1.097c-.139.687.916.571 1.449 1.103.408.409.093 1.493.67 1.493a2.15 2.15 0 001.53-.634l.615-.615a52.617 52.617 0 0018.31-.002l.616.617a2.15 2.15 0 001.53.634c.578 0 .262-1.084.671-1.493.409-.408 1.492-.093 1.492-.67 0-.578-.224-1.122-.633-1.53l-.327-.327z" fill="#B9DFFC"/><path class="p-22B8F9" d="M25.966 21.98c.712-4.017.717-7.795.014-11.808l.314-.313a2.15 2.15 0 00.633-1.53c0-.578-1.084-.262-1.492-.671-.409-.409-.093-1.493-.671-1.493a2.15 2.15 0 00-1.53.634l-.542.542a52.753 52.753 0 00-9.06-.816v19.027a52.748 52.748 0 008.985-.802l.617.616a2.15 2.15 0 001.53.634c.578 0 .262-1.084.67-1.493.41-.408 1.493-.093 1.493-.67 0-.578-.225-1.122-.633-1.53l-.328-.327z" fill="#A1D1FD"/></svg>
